X:1
T:Chi non sa
T:Chi non sa
T:Bartolomeo Spighi da Prato
C:Bartolomeo Spighi da Prato
%%score [ 1 2 ] { 3 | 4 }
L:1/8
Q:1/4=120
M:3/2
K:C
V:1 treble nm="Soprano 1" snm="S 1"
V:2 treble nm="Soprano 2" snm="S 2"
V:3 treble nm="MusicXML Part"
V:4 bass 
V:1
"^Source: Musical Concerto d'arie e canzonette---Fiorenza---Z.Pignoni---1641.\nEditor: André Vierendels (19/09/08)\nContinuo André Vierendeels" z2 B2 c2 d2 A4- | %1
w: Chi non sa quan-|
w: S'ad al- trui quel|
w: Che- se pur an-|
 A2 d4"^CANZONETTA" ^c2 d4 | ^c6 z2 A2 B2 | cdcd ecBc BAGF | EDEF GA B2 A4 | A4 ^G4 A4 | z12 | %7
w: * to gio- is-|co del mi'a-|mor _ _ _ _ _ _ _ _ _ _ _|_ _ _ _ _ _ _ ri-|der non puo-||
w: _ vol- to spia-|ce, ch'a me|l'a- * * * * * * * * * * *|* * * * * * * ni-|ma ra- pi,||
w: * ch'es- sa de-|ve u- sar|me- * * * * * * * * * * *|* * * * * * * co'in-|fi- del- ta||
 z12 | z2 G2 A2 B2 B2 B2 | A4 G2 ^F6 | E2 e2 e2 B2 c2 B2 | A4 B2 G6 :: z2 G2 F2 E2 A2 G2 | %13
w: |quel- la Nin- fa- on-|de lan- guis-|co non e bel- la io|gia- lo- so.|Ma che val gran bel-|
w: |con piu qui- e- te'e|con pi pa-|ce Go- dro sen pre not-|te, e di,|gran bel- ta mai non|
w: |il mio lac- cio'e tal|ch'in bre- ve|tor- nar pos- so in li-|ber- * ta|se- gua pur altr' A-|
 F2 f2 e2 d2 g2 f2 | e2 c4 d2- d2 c2 | B6 A6 | z6 z2 G2 D2 | G2 GF ED E6 | D4 G2 G4 ^F2 | G6 z6 | %20
w: ta, ma che val gran bel-|ta con gran _ fie-|rez- za,|me glio'e|po- ca _ bel- * lez'|e as- sai pie-|ta,|
w: e ch'eb- bi fer- mez- zo|me- glio'e po- ca bel-|lez- za,|||e- sta- bil- *|fe|
w: mor chi fiam- ma'ap- prez- za|me- glio'e po- ca bel-|lez- za,|||e me- no'A- *|mor|
 z2 A2 E2 A2 AG FE | ^F6 E2 e2 B2 | e2 ed cB A2 A2 B2 | A2 A2 B2 G6 :| %24
w: me- glio'e po- ca _ bel- *|lez- za, me- glio'e|po- ca _ bel- * lezz' e- as-|sai pie- * ta.|
w: ||* * * * * * e sta-|* bil _ fe.|
w: ||* * * * * * e me-|no A- * mor.|
V:2
 z6 z2 D2 E2 | ^F2 A3 A A2 A2 ^G2 | A6 z2 c2 B2 | ABAB cede dcBA | GFGA Bc d4 c2 | B2 B2- c2 A6 | %6
w: Chi no|sa quan- to gio- is- *|co del mi'a-|mor _ _ _ _ _ _ _ _ _ _ _|_ _ _ _ _ _ _ ri-|der non _ puo|
w: S'ad al-|trui quel vol- to spia- *|ce, ch'a me|l'a- * * * * * * * * * * *|* * * * * * * ni-|ma ra- * pi,|
w: Che se|pur an- ch'es- sa de- *|ve u- sar|me- * * * * * * * * * * *|* * * * * * * co'in-|fi- del _ ta|
 z2 E2 F2 G2 G2 G2 | F4 E2 D6 | C6 z2 D2 G2 | E2 F2 E2 E4 ^D2 | E2 B2 B2 G2 A2 G2 | G4 ^F2 G6 :: %12
w: quel- la Nin- fa on-|de lan- guis-|co non e|bel- la io gia- lo-|so, non e bel- la io|gia- lo- so.|
w: con piu qui- e- te'e|con piu pa-|ce Go- dro|sen pre not- te e|di Go- dro sen pre not-|te e di,|
w: il mio lac- cio e|tal ch'in bre-|ve tor- nar|pos- so in li- ber-|ta, tor- nar pos- so in|li- ber- ta.|
 z12 | z2 d2 c2 B2 e2 d2 | c2 A4 B2 A4 | A4 ^G2 A2 c2 A2 | d2 dc BA B6- | B2 d2 d2 d4 ^c2 | d6 z6 | %19
w: |Ma che val gran bel-|ta con gran fie-|ren- za, me- glio'e po-|ca bel- * lezz' _ e|_ as- sai pie- *|ta,|
w: |Gran bel- ta mai non|e ch'eb- bi fer-|mez- zo- * * *||* e sta- bil _|fe|
w: |Se- gua pur altr' A-|mor chi fiam- ma'ap-|prez- za- * * *||* e me- no A-|mor|
 z2 d2 B2 e2 ed cB | c6- c2 e2 e2 | e4 ^d2 e2 B2 G2 | c2 cB AG ^F2 F2 G2 | G4 ^F2 G6 :| %24
w: me glio'e po- ca _ bel- *|lezz' _ e as-|sai pie- ta, me glio'e|po- ca _ bel- * lezz' e as-|sai pie- ta.|
w: |||* * * * * * e sta-|bil _ fe.|
w: |||* * * * * * e me-|no A- mor.|
V:3
 [GBd]4 [EGc]2 [FAd]2 [DA]2 [EA]2 | [D^FA]4 [EA]4 [=Fd]4 | [EA^c]6 [A=c]4 [GBd]2 | [Ac]6 [DB]6 | %4
 [EGc]6 [Bd]2 [^FA]4 | [EA]4 [E^G]4 [EAc]4 | [EAc]6 [EGB]6 | [Ac]6 [DB]6 | [EGc]6 [DGB]6 | %9
 [Ec]6 [^FB]4 z2 | [EGB]8 [Ec]4 | [Gd]4 [^Fd]2 [DGB]6 :: [DGB]6 [EG]2 [EA]4 | [FA]6 [Gd]2 [GB]4 | %14
 [Ec]4 [FAc]2 [FBd]2 [EA]4- | [EA]4 [^GB]2 [Ec]6 | [DAd]6 [D-GB-]6 | [DGB]6 [DAd]4 [A^c]2 | %18
 [^Fd]2 [DB]4 [EG]2 [DA]4 | [DGB]12 | [EAc]12 | [^FB]4 [^DB]2 [EGB]6 | [EGc]6 [^FA]4 [DB]2 | %23
 [EGc]2 [Ad]2 [^FB]2 [DGB]6 :| %24
V:4
 z2 G,2 E,2 D,4 ^C,2 | D,4 A,,4 _B,,4 | A,,6 A,4 G,2 | F,4 C,2 G,6 | C4 B,A, G,2 D,4 | E,6 A,,6 | %6
 A,,6 E,6 | F,2 F,,4 G,,6 | C,6 G,6 | A,2 A,,4 B,,6 | E,6 G,2 C,4 | D,6 G,,6 :: G,,6 C,2 A,,4 | %13
 D,6 G,2 E,4 | A,4 F,2 D,2 A,,4 | E,6 A,,2 A,4 | ^F,6 G,6 | G,2 D,4 A,,6 | D,2 B,,2 G,,2 C,2 D,4 | %19
 G,,2 G,4 G,6 | %20
 A,6 A,2"^Notes: original keys: Ut 1st, Ut 1st, Fa 4rth.\n            m5 in BC, semibrevis \"do\", pointed in original print" E,4 | %21
 B,2 B,,4 E,6 | C,6 D,4 G,,2 | C,2 D,4 G,,6 :| %24

